X: 118
T:Missa Mater patris / Credo
N: Derived from Jos1001c-Missa_Mater_patris-Credo.krn
C: Josquin des Prez
%%abc-version 2.0
%%abcx-abcm2ps-target-version 5.9.1 (29 Sep 2008)
%%abc-creator hum2abc beta
%%abcx-conversion-date 2019/02/12 16:15:43
%%abc-edited-by Jesse Rodin
%%abc-edited-by Will Watson 16/08/2011
%%abcx-initial-encoding-date 2011/08/16/
%%humdrum-veritas 1404570781
%%humdrum-veritas-data 3742579284
%%linebreak <none>
%%barnumbers 0
L: 1/4
M: 2/1
Q: 1/2=120
%%staves [1 2 3 4]
V: 1 clef=treble-8
V: 2 clef=treble-8
V: 3 clef=treble-8
V: 4 clef=bass
K: F
[V:1] z8 | 
[V:2] z8 | 
[V:3] z8 | 
[V:4] G,8 | 
[V:1] z8 | 
[V:2] z8 | 
[V:3] z8 | 
[V:4] G,4F,4 | 
[V:1] z8 | 
[V:2] G8 | 
[V:3] z8 | 
[V:4] B,6G,2 | 
[V:1] z8 | 
[V:2] G4F4 | 
[V:3] z8 | 
[V:4] B,4C4 | 
[V:1] z8 | 
[V:2] B6G2 | 
[V:3] z8 | 
[V:4] D2G,3A,B,2- | 
[V:1] z8 | 
[V:2] B4c4 | 
[V:3] z8 | 
[V:4] B,A,G,F,E,4 | 
[V:1] z8 | 
[V:2] d8 | 
[V:3] z8 | 
[V:4] D,4z2G,2 | 
[V:1] z8 | 
[V:2] z2d2d2d2 | 
[V:3] z8 | 
[V:4] G,2G,2F,2G,2 | 
[V:1] z8 | 
[V:2] d3cd2c2- | 
[V:3] z8 | 
[V:4] D,3E,F,G,A,2- | 
[V:1] z8 | 
[V:2] cBAGA4 | 
[V:3] z8 | 
[V:4] A,G,G,4^F,2 | 
[V:1] z4z2G2- | 
[V:2] G4z2E2- | 
[V:3] z8 | 
[V:4] G,4C,3C, | 
[V:1] G2A2B2B2 | 
[V:2] E2F2G2G2 | 
[V:3] z8 | 
[V:4] C,2A,,2G,,2G,2- | 
[V:1] c8 | 
[V:2] A8 | 
[V:3] z8 | 
[V:4] G,2F,E,F,2A,2 | 
[V:1] B2A2G4 | 
[V:2] G2F2E4 | 
[V:3] z8 | 
[V:4] B,2C3B,G,2 | 
[V:1] F4f4 | 
[V:2] D4d4 | 
[V:3] z8 | 
[V:4] A,4D,4 | 
[V:1] g4f2d2 | 
[V:2] _e4d2B2 | 
[V:3] z8 | 
[V:4] C,4D,4 | 
[V:1] e2f3ee2- | 
[V:2] c2d3cc2- | 
[V:3] z8 | 
[V:4] C,2B,,2C,4 | 
[V:1] edecd4 | 
[V:2] cBcAB4 | 
[V:3] z8 | 
[V:4] A,,4G,,4 | 
[V:1] z4B4- | 
[V:2] z4G4- | 
[V:3] z4D4- | 
[V:4] z4G,,4- | 
[V:1] B2B2B4 | 
[V:2] G2G2G4 | 
[V:3] D2D2D4 | 
[V:4] G,,2G,,2B,,4 | 
[V:1] c4d4 | 
[V:2] A4B4 | 
[V:3] E4F4 | 
[V:4] A,,4D,4 | 
[V:1] e4f4- | 
[V:2] c4d4- | 
[V:3] G4A4- | 
[V:4] C,4F,4- | 
[V:1] f2f2f4 | 
[V:2] d2d2d4 | 
[V:3] A2A2A4 | 
[V:4] F,2D,2F,2D,2 | 
[V:1] e4f4 | 
[V:2] c4d4 | 
[V:3] G4A4 | 
[V:4] E,4D,4- | 
[V:1] z8 | 
[V:2] z2d2B2c2 | 
[V:3] z8 | 
[V:4] D,4G,2E,2 | 
[V:1] z8 | 
[V:2] d2G2c3B | 
[V:3] z8 | 
[V:4] F,2G,2C,2F,2- | 
[V:1] z8 | 
[V:2] AGB3AG2- | 
[V:3] z8 | 
[V:4] F,E,D,C,B,,2C,2 | 
[V:1] z8 | 
[V:2] G2^F2G4 | 
[V:3] z8 | 
[V:4] A,,4G,,2G,2- | 
[V:1] z4f4 | 
[V:2] z4d4 | 
[V:3] z4A4 | 
[V:4] G,2F,E,D,4 | 
[V:1] f4f4 | 
[V:2] d4d4 | 
[V:3] A4A4 | 
[V:4] D,2D,2F,4 | 
[V:1] g4a4 | 
[V:2] e4f4 | 
[V:3] B4c4 | 
[V:4] E,4A,4 | 
[V:1] b8 | 
[V:2] g8 | 
[V:3] d8 | 
[V:4] G,8 | 
[V:1] b4b4 | 
[V:2] g4g4 | 
[V:3] d4d4 | 
[V:4] G,4B,4- | 
[V:1] b4a4- | 
[V:2] g4f4- | 
[V:3] d4c4- | 
[V:4] B,2B,2F,4- | 
[V:1] a2g2f4 | 
[V:2] f2e2d4 | 
[V:3] c2B2A4 | 
[V:4] F,2G,2D,4 | 
[V:1] e4f4 | 
[V:2] ^c4d4 | 
[V:3] G4A4 | 
[V:4] E,4D,4- | 
[V:1] z2a2b4 | 
[V:2] z2f2g4 | 
[V:3] z8 | 
[V:4] D,4z2G,2 | 
[V:1] g4a4 | 
[V:2] e4f4 | 
[V:3] z8 | 
[V:4] C4A,4 | 
[V:1] f4z2b2 | 
[V:2] d4z2g2 | 
[V:3] z8 | 
[V:4] B,4G,4 | 
[V:1] c'3ba2g2 | 
[V:2] a3gf2e2 | 
[V:3] z8 | 
[V:4] z4z2C2 | 
[V:1] f4z2a2 | 
[V:2] d4z2f2 | 
[V:3] z8 | 
[V:4] D3CB,2A,2 | 
[V:1] b4g4 | 
[V:2] g4e4 | 
[V:3] z8 | 
[V:4] G,4z2C,2 | 
[V:1] a2f2g2a2- | 
[V:2] f2d2e2f2- | 
[V:3] z8 | 
[V:4] F,4E,2D,2- | 
[V:1] agfed2g2- | 
[V:2] fedcB2G2 | 
[V:3] z8 | 
[V:4] D,E,F,2G,2E,2 | 
[V:1] g2^f2g4 | 
[V:2] A4G4 | 
[V:3] z8 | 
[V:4] D,4G,,4 | 
[V:1] z2d4d2 | 
[V:2] z2B4B2 | 
[V:3] z2F4F2 | 
[V:4] B,,6B,,2 | 
[V:1] d2d2e4 | 
[V:2] B2B2c4 | 
[V:3] F2F2G4 | 
[V:4] D,2D,2C,4- | 
[V:1] c4z2c2 | 
[V:2] A4z2A2 | 
[V:3] E4z2E2 | 
[V:4] C,2B,,A,,A,,2A,,2 | 
[V:1] d2e2f4- | 
[V:2] B2c2d4- | 
[V:3] F2G2A4- | 
[V:4] D,2C,2F,2D,2 | 
[V:1] f2e2d2c2 | 
[V:2] d2c2B2A2 | 
[V:3] A2G2F2E2 | 
[V:4] F,2C,2D,2A,,2 | 
[V:1] B4c4 | 
[V:2] G4A4 | 
[V:3] D4E4 | 
[V:4] B,,4A,,4 | 
[V:1] z2d4d2 | 
[V:2] z2B4B2 | 
[V:3] z2F4F2 | 
[V:4] D,6D,2 | 
[V:1] d2d2e3d | 
[V:2] B2B2c3B | 
[V:3] F2F2G3F | 
[V:4] B,,2D,2C,4- | 
[V:1] cBc3BB2- | 
[V:2] AGA3GG2- | 
[V:3] EDE3DD2- | 
[V:4] C,2A,,2C,2G,,A,, | 
[V:1] B2A2B4 | 
[V:2] G2^F2G4 | 
[V:3] D2C2D4 | 
[V:4] B,,G,,A,,2G,,4- | 
[V:1] z8 | 
[V:2] z2G2A2B2 | 
[V:3] z8 | 
[V:4] G,,4z2D,2 | 
[V:1] z8 | 
[V:2] c2A2B2c2 | 
[V:3] z8 | 
[V:4] E,2F,2D,2E,2 | 
[V:1] z8 | 
[V:2] d2B2c2d2 | 
[V:3] z8 | 
[V:4] F,2G,2E,2F,2 | 
[V:1] z8 | 
[V:2] _e2c2d2=e2 | 
[V:3] z8 | 
[V:4] G,2A,2F,2G,2 | 
[V:1] z8 | 
[V:2] f2d2g3f | 
[V:3] z8 | 
[V:4] A,2B,2G,2C2- | 
[V:1] z8 | 
[V:2] edcBAGFE | 
[V:3] z8 | 
[V:4] CB,A,G,F,E,D,C, | 
[V:1] z8 | 
[V:2] D2G4^F2 | 
[V:3] z8 | 
[V:4] B,,A,,G,,2A,,4 | 
[V:1] z4z2b2 | 
[V:2] G4z2g2 | 
[V:3] z4z2d2 | 
[V:4] G,,4G,4 | 
[V:1] b2b2a4 | 
[V:2] g2g2f4 | 
[V:3] d2d2c4 | 
[V:4] B,2B,2F,4 | 
[V:1] g4f4 | 
[V:2] e4d4 | 
[V:3] B4A4 | 
[V:4] G,4D,4 | 
[V:1] z2f2f2f2 | 
[V:2] z2d2d2d2 | 
[V:3] z2A2A2A2 | 
[V:4] z2D,2F,2F,2 | 
[V:1] e4d4 | 
[V:2] c4B4 | 
[V:3] G4F4 | 
[V:4] C,4D,4 | 
[V:1] c4z2c2- | 
[V:2] A4z2A2- | 
[V:3] E4z2E2- | 
[V:4] A,,4C,4- | 
[V:1] c2c2d2c2 | 
[V:2] A2A2B2A2 | 
[V:3] E2E2F2E2 | 
[V:4] C,2A,,2D,2A,,2 | 
[V:1] d4e4 | 
[V:2] B4c4 | 
[V:3] F4G4 | 
[V:4] D,4C,4- | 
[V:1] c4z2c2 | 
[V:2] A4z2A2 | 
[V:3] E4z2E2 | 
[V:4] C,2B,,A,,A,,2A,,2 | 
[V:1] d2c2d2e2 | 
[V:2] B2A2B2c2 | 
[V:3] F2E2F2G2 | 
[V:4] D,2A,,2D,2C,2- | 
[V:1] c4z2c2 | 
[V:2] A4z2A2 | 
[V:3] E4z2E2 | 
[V:4] C,B,,C,A,,A,,2A,,2 | 
[V:1] d2c2d2e2 | 
[V:2] B2A2B2c2 | 
[V:3] F2E2F2G2 | 
[V:4] D,2A,,2D,2C,2- | 
[V:1] c8- | 
[V:2] A8- | 
[V:3] E8- | 
[V:4] C,B,,C,A,,C,2A,,2 | 
[V:1] c8 ||  
[V:2] A8 ||  
[V:3] E8 ||  
[V:4] A,,8 ||  
[V:1] [M:2/1]z8 | 
[V:2] [M:2/1]G4G2G2- | 
[V:3] [M:2/1]z8 | 
[V:4] [M:2/1]z4C,4 | 
[V:1] z8 | 
[V:2] G2FEE4 | 
[V:3] z8 | 
[V:4] C,2C,4B,,A,, | 
[V:1] z8 | 
[V:2] z2F2D2E2 | 
[V:3] z8 | 
[V:4] A,,4B,,2G,,2 | 
[V:1] z8 | 
[V:2] F2G4A2 | 
[V:3] z8 | 
[V:4] A,,2B,,2C,4 | 
[V:1] z8 | 
[V:2] z2A4B2 | 
[V:3] z8 | 
[V:4] D,2z2D,4 | 
[V:1] z8 | 
[V:2] G2A4F2 | 
[V:3] z8 | 
[V:4] E,2C,2D,2A,2- | 
[V:1] z8 | 
[V:2] G2B2A4 | 
[V:3] z8 | 
[V:4] A,B,G,3^F,F,E, | 
[V:1] z8 | 
[V:2] G2B2c2d2- | 
[V:3] z8 | 
[V:4] G,4E,2F,2 | 
[V:1] z8 | 
[V:2] dcBAGFED | 
[V:3] z8 | 
[V:4] G,3F,E,D,C,B,, | 
[V:1] z8 | 
[V:2] EDG3^F^F=E | 
[V:3] z8 | 
[V:4] C,B,,A,,G,,A,,4 | 
[V:1] z4z2B2 | 
[V:2] G4z2G2 | 
[V:3] z4z2D2 | 
[V:4] G,,4z2B,,2 | 
[V:1] c2d2e2c2 | 
[V:2] A2B2c2A2 | 
[V:3] E2F2G2E2 | 
[V:4] A,,2D,2C,3A,, | 
[V:1] z2B2c2d2 | 
[V:2] z2G2A2B2 | 
[V:3] z2D2E2F2 | 
[V:4] A,,2B,,2A,,2D,2 | 
[V:1] e2c2z2B2 | 
[V:2] c2A2z2G2 | 
[V:3] G2E2z2D2 | 
[V:4] C,3A,,A,,2B,,2 | 
[V:1] c2d2e4 | 
[V:2] A2B2c4 | 
[V:3] E2F2G4 | 
[V:4] A,,2D,2C,4 | 
[V:1] f4e4 | 
[V:2] d4c4 | 
[V:3] A4G4 | 
[V:4] F,4C,4 | 
[V:1] z2a2a2a2 | 
[V:2] z2f2f2f2 | 
[V:3] z2c2c2c2 | 
[V:4] F,6F,2 | 
[V:1] f2g3ff2- | 
[V:2] d2e3dd2- | 
[V:3] A2B3AA2- | 
[V:4] F,2E,2G,2D,E, | 
[V:1] f2e2f4 | 
[V:2] d2^c2d4 | 
[V:3] A2G2A4 | 
[V:4] F,D,E,2D,4 | 
[V:1] z2f2agfe | 
[V:2] z2d2fedc | 
[V:3] z2A2cBAG | 
[V:4] D,2F,4F,E, | 
[V:1] f2d2edcB | 
[V:2] d2B2cBAG | 
[V:3] A2F2GFED | 
[V:4] D,C,D,2C,4- | 
[V:1] c2B4A2 | 
[V:2] A2G4^F2 | 
[V:3] E2D4C2 | 
[V:4] C,2G,,A,,B,,G,,A,,2 | 
[V:1] B4z2B2 | 
[V:2] G4z2G2 | 
[V:3] D4z2D2 | 
[V:4] G,,4B,,4 | 
[V:1] c4A4 | 
[V:2] A4F4 | 
[V:3] E4C4 | 
[V:4] A,,4A,,4 | 
[V:1] B4z2B2 | 
[V:2] G4z2G2 | 
[V:3] D4z2D2 | 
[V:4] G,,4B,,4 | 
[V:1] c4A4 | 
[V:2] A4F4 | 
[V:3] E4C4 | 
[V:4] A,,4A,,4 | 
[V:1] B4z2B2 | 
[V:2] G4z2G2 | 
[V:3] D4z2D2 | 
[V:4] G,,4B,,4 | 
[V:1] c4d4 | 
[V:2] A4B4 | 
[V:3] E4F4 | 
[V:4] A,,4D,4 | 
[V:1] e4z2e2 | 
[V:2] c4z2c2 | 
[V:3] G4z2G2 | 
[V:4] C,4E,4 | 
[V:1] f4g4 | 
[V:2] d4e4 | 
[V:3] A4B4 | 
[V:4] D,4G,4 | 
[V:1] a4z2a2 | 
[V:2] f4z2f2 | 
[V:3] c4z2c2 | 
[V:4] F,4A,4 | 
[V:1] b4g4 | 
[V:2] g4e4 | 
[V:3] d4B4 | 
[V:4] G,4G,4 | 
[V:1] a6f2 | 
[V:2] f6d2 | 
[V:3] c6A2 | 
[V:4] F,3G,A,2D,2 | 
[V:1] f4z2f2 | 
[V:2] d4z2d2 | 
[V:3] A4z2A2 | 
[V:4] D,4F,4 | 
[V:1] g4e4 | 
[V:2] e4c4 | 
[V:3] B4G4 | 
[V:4] E,4E,4 | 
[V:1] f4z2d2 | 
[V:2] d4z2B2 | 
[V:3] A4z2F2 | 
[V:4] D,4D,4 | 
[V:1] e4c4 | 
[V:2] c4A4 | 
[V:3] G4E4 | 
[V:4] C,4C,4 | 
[V:1] d6B2 | 
[V:2] B6G2 | 
[V:3] F6D2 | 
[V:4] B,,3C,D,2G,,2 | 
[V:1] B8 ||  
[V:2] G8 ||  
[V:3] D8 ||  
[V:4] G,,8 ||  
[V:1] [M:2/1]z8 | 
[V:2] [M:2/1]d4e4 | 
[V:3] [M:2/1]z8 | 
[V:4] [M:2/1]z4G,4 | 
[V:1] z8 | 
[V:2] c4d4 | 
[V:3] z8 | 
[V:4] A,4F,4 | 
[V:1] z8 | 
[V:2] e8 | 
[V:3] z8 | 
[V:4] G,4A,4- | 
[V:1] z8 | 
[V:2] f6e2 | 
[V:3] z8 | 
[V:4] A,4B,4- | 
[V:1] z8 | 
[V:2] d2c2d4- | 
[V:3] z8 | 
[V:4] B,2A,2G,2F,2 | 
[V:1] z8 | 
[V:2] d2c2B2A2 | 
[V:3] z8 | 
[V:4] G,6F,2 | 
[V:1] z8 | 
[V:2] G2F2G4 | 
[V:3] z8 | 
[V:4] E,2D,2C,2B,,2 | 
[V:1] z8 | 
[V:2] A4z2F2 | 
[V:3] z8 | 
[V:4] C,4D,4 | 
[V:1] z8 | 
[V:2] G2B2A2G2 | 
[V:3] z8 | 
[V:4] z2B,,2C,2_E,2 | 
[V:1] z8 | 
[V:2] F2E2D2ED | 
[V:3] z8 | 
[V:4] D,2C,2B,,2A,,2 | 
[V:1] z8 | 
[V:2] EDG3^F^F=E | 
[V:3] z8 | 
[V:4] G,,2B,,2A,,4 | 
[V:1] z2d2d2d2 | 
[V:2] G2B2B2B2 | 
[V:3] z2F2F2F2 | 
[V:4] G,,2D,2D,2D,2 | 
[V:1] _e6d2 | 
[V:2] c6B2 | 
[V:3] G6F2 | 
[V:4] C,6D,2 | 
[V:1] c4B4 | 
[V:2] A4G4 | 
[V:3] E4D4 | 
[V:4] A,,4B,,4 | 
[V:1] c2d2e2f2- | 
[V:2] A2B2c2d2- | 
[V:3] E2F2G2A2- | 
[V:4] A,,2D,2C,2F,2- | 
[V:1] f2f2f4 | 
[V:2] d2d2d4 | 
[V:3] A2A2A4 | 
[V:4] F,2D,2F,4 | 
[V:1] e4z2f2- | 
[V:2] c4z2d2- | 
[V:3] G4z2A2- | 
[V:4] C,4F,4- | 
[V:1] f2e2d2c2 | 
[V:2] d2c2B2A2 | 
[V:3] A2G2F2E2 | 
[V:4] F,2C,2D,2A,,2 | 
[V:1] B4A4 | 
[V:2] G4^F4 | 
[V:3] D4C4 | 
[V:4] B,,2G,,2A,,4 | 
[V:1] B4z4 | 
[V:2] G4z2G2 | 
[V:3] D4z4 | 
[V:4] G,,8 | 
[V:1] z8 | 
[V:2] A2B2c2d2 | 
[V:3] z8 | 
[V:4] z2D,2E,2F,2 | 
[V:1] z8 | 
[V:2] Bcdefga2- | 
[V:3] z8 | 
[V:4] G,A,B,CD2C2 | 
[V:1] z8 | 
[V:2] agg4^f2 | 
[V:3] z8 | 
[V:4] B,2G,2A,4 | 
[V:1] z8 | 
[V:2] g2z2G2B2 | 
[V:3] z8 | 
[V:4] G,2G,2B,2G,2 | 
[V:1] z8 | 
[V:2] G2B3cd2 | 
[V:3] z8 | 
[V:4] B,3CD2G,2 | 
[V:1] z8 | 
[V:2] G2d2e2f2 | 
[V:3] z8 | 
[V:4] z2B,2A,2A,2 | 
[V:1] z4z2b2 | 
[V:2] g4z2g2 | 
[V:3] z4z2d2 | 
[V:4] G,2G,2B,3B, | 
[V:1] a2g2f2_e2 | 
[V:2] f2e2d2c2 | 
[V:3] c2B2A2G2 | 
[V:4] F,2G,2D,2_E,2 | 
[V:1] d2c2B4 | 
[V:2] B2A2G4 | 
[V:3] F2E2D4 | 
[V:4] B,,2C,2G,,4 | 
[V:1] A4B4 | 
[V:2] ^F4G4 | 
[V:3] C4D4 | 
[V:4] A,,4G,,4 | 
[V:1] z8 | 
[V:2] z2d4c2 | 
[V:3] z8 | 
[V:4] G,4F,2E,2 | 
[V:1] z8 | 
[V:2] B2d3cA2 | 
[V:3] z8 | 
[V:4] G,3F,D,2z2 | 
[V:1] z8 | 
[V:2] z2c4B2 | 
[V:3] z8 | 
[V:4] F,4E,2D,2 | 
[V:1] z8 | 
[V:2] A2c3BG2 | 
[V:3] z8 | 
[V:4] F,3E,C,2z2 | 
[V:1] z8 | 
[V:2] z2d4c2 | 
[V:3] z8 | 
[V:4] G,4F,2E,2 | 
[V:1] z8 | 
[V:2] B2d2c2B2 | 
[V:3] z8 | 
[V:4] G,2F,2E,2G,2- | 
[V:1] z8 | 
[V:2] d3cABc2- | 
[V:3] z8 | 
[V:4] G,F,/E,/D,E,F,G,A,2- | 
[V:1] z8 | 
[V:2] cBG2A4 | 
[V:3] z8 | 
[V:4] A,G,G,3^F,F,E, | 
[V:1] z4z2b2 | 
[V:2] G4z2g2 | 
[V:3] z8 | 
[V:4] G,8 | 
[V:1] a2b3abg | 
[V:2] f2g3fge | 
[V:3] z8 | 
[V:4] z8 | 
[V:1] a4z2b2 | 
[V:2] f4z2g2 | 
[V:3] z8 | 
[V:4] z8 | 
[V:1] a2b2a2b2- | 
[V:2] f2g2f2g2- | 
[V:3] z8 | 
[V:4] z8 | 
[V:1] babga4 | 
[V:2] gfgef4 | 
[V:3] z8 | 
[V:4] z8 | 
[V:1] z2b4b2 | 
[V:2] z2g4g2 | 
[V:3] z2d4d2 | 
[V:4] z2G,4G,2 | 
[V:1] b4!fermata!a8 | 
[V:2] g4!fermata!f8 | 
[V:3] d4!fermata!c8 | 
[V:4] B,4F,8 | 
[V:1] [M:3/1]z12 | 
[V:2] [M:3/1]z12 | 
[V:3] [M:3/1]z12 | 
[V:4] [M:3/1]B,4B,4C4 | 
[V:1] z12 | 
[V:2] B4B4c4 | 
[V:3] z12 | 
[V:4] D6CB,A,4 | 
[V:1] z12 | 
[V:2] d6cBA4 | 
[V:3] z12 | 
[V:4] B,4G,4F,4 | 
[V:1] z12 | 
[V:2] B4G4F4 | 
[V:3] z12 | 
[V:4] B,8C4 | 
[V:1] d8e4 | 
[V:2] B8c4 | 
[V:3] z12 | 
[V:4] D6CB,A,4 | 
[V:1] f6e2c4 | 
[V:2] d6c2A4 | 
[V:3] z12 | 
[V:4] D,6E,2F,4 | 
[V:1] d4B4A4 | 
[V:2] B4G4F4 | 
[V:3] z12 | 
[V:4] B,,6C,2D,4 | 
[V:1] d8e4 | 
[V:2] B8c4 | 
[V:3] G8G4 | 
[V:4] G,,4G,4E,4 | 
[V:1] f4g8 | 
[V:2] d4B4c4 | 
[V:3] A4G8 | 
[V:4] D,4G,4E,4 | 
[V:1] f4g8 | 
[V:2] d4B4c4 | 
[V:3] A4G8 | 
[V:4] D,4G,4E,4 | 
[V:1] f6e2d2c2 | 
[V:2] d6c2B2A2 | 
[V:3] A4D8 | 
[V:4] D,4B,,4D,4 | 
[V:1] d4e6d2 | 
[V:2] B4c6B2 | 
[V:3] G4E4G4 | 
[V:4] G,,4C,6D,2 | 
[V:1] g8^f4 | 
[V:2] G4A8 | 
[V:3] C4F8 | 
[V:4] _E,4D,8 | 
[V:1] g12- | 
[V:2] G12- | 
[V:3] D4_E8 | 
[V:4] B,,4C,8 | 
[V:1] g12 |]  
[V:2] G12 |]  
[V:3] D12 |]  
[V:4] G,,12 |]  



